brandFactory_export/1.Light/Garaje_1Light.svg

<?xml version="1.0" encoding="UTF-8"?>
<svg width="24px" height="24px" viewBox="0 0 24 24" version="1.1" xmlns="http://www.w3.org/2000/svg" xmlns:xlink="http://www.w3.org/1999/xlink">
    <title>1.Light/Garaje_1Light</title>
    <g id="Symbols" stroke="none" stroke-width="1" fill="none" fill-rule="evenodd">
        <g id="1.Light/Garaje_1Light" fill="#5CB615" fill-rule="nonzero">
            <path d="M13.0575999,0.433084345 L13.1865546,0.54789916 L23.112605,10.2756303 C23.6033613,10.7596639 23.7546218,11.4386555 23.502521,12.0537815 C23.2421289,12.687507 22.6215798,13.1133371 21.8950334,13.1672979 L21.7378151,13.1731092 L20.8436975,13.1731092 L20.8436975,21.9058824 C20.8436975,22.8063866 20.0822605,23.5491429 19.1155996,23.6211672 L18.9613445,23.6268908 L17.3008403,23.6268908 C17.2907563,23.6268908 17.2840336,23.6201681 17.2739496,23.6201681 L17.2605042,23.6218487 L17.2605042,23.6218487 L17.2470588,23.6235294 L6.31932773,23.6235294 L6.30588235,23.6201681 L6.29747899,23.6218487 L6.28907563,23.6235294 L4.5210084,23.6235294 C3.53428571,23.6235294 2.7235126,22.9257983 2.6449021,22.0433202 L2.63865546,21.902521 L2.63865546,13.1731092 L1.88235294,13.1731092 C1.08907563,13.1731092 0.4,12.7327731 0.121008403,12.0537815 C-0.111700065,11.4859729 -0.000716026524,10.8608821 0.403728537,10.3900124 L0.510924369,10.2756303 L10.4369748,0.54789916 C11.1385621,-0.140989729 12.3018778,-0.179261334 13.0575999,0.433084345 Z M11.2217865,1.16953782 L11.1260504,1.25042017 L1.19663866,10.9848739 C0.917647058,11.2571429 0.971428571,11.5428571 1.03193277,11.6840336 C1.11663866,11.8927731 1.35381513,12.1369076 1.7459126,12.1836471 L1.88235294,12.1915966 L3.13613445,12.1915966 C3.3751634,12.1915966 3.57701006,12.3642287 3.6189139,12.5938145 L3.62689076,12.6823529 L3.62689076,21.902521 C3.62689076,22.2779573 3.97058326,22.5875193 4.41209594,22.6329227 L4.52436975,22.6386555 L5.79831933,22.6386555 L5.79831933,12.7831933 C5.79831933,12.5441643 5.97095134,12.3423177 6.20053717,12.3004138 L6.28907563,12.292437 L17.3008403,12.292437 C17.5398693,12.292437 17.7417159,12.465069 17.7836198,12.6946548 L17.7915966,12.7831933 L17.7915966,22.6386555 L18.9613445,22.6386555 C19.4174531,22.6386555 19.7962309,22.3551091 19.8518056,21.9915882 L19.8588235,21.8991597 L19.8588235,12.6789916 C19.8588235,12.4369748 20.0314555,12.237452 20.2610414,12.1961015 L20.3495798,12.1882353 L21.7378151,12.1882353 C22.2151261,12.1882353 22.4941176,11.912605 22.5915966,11.6806723 C22.6453782,11.5521942 22.6938479,11.3148252 22.5080103,11.0700787 L22.4268908,10.9781513 L12.5008403,1.25042017 C12.1711485,0.926890756 11.5929038,0.899929972 11.2217865,1.16953782 Z M16.8067227,20.1747899 L6.77983193,20.1747899 L6.77983193,22.6352941 L16.8067227,22.6352941 L16.8067227,20.1747899 Z M16.8067227,16.7327731 L6.77983193,16.7327731 L6.77983193,19.1932773 L16.8067227,19.1932773 L16.8067227,16.7327731 Z M16.8067227,13.2739496 L6.77983193,13.2739496 L6.77983193,15.7478992 L16.8067227,15.7478992 L16.8067227,13.2739496 Z" id="Garaje_1Light"></path>
        </g>
    </g>
</svg>

<svg width="24" height="24" viewBox="0 0 24 24" xmlns="http://www.w3.org/2000/svg"><path d="M13.058.433l.129.115 9.926 9.728c.49.484.642 1.163.39 1.778-.26.634-.881 1.06-1.608 1.113l-.157.006h-.894v8.733c0 .9-.762 1.643-1.728 1.715l-.155.006h-1.66c-.01 0-.017-.007-.027-.007l-.013.002-.014.002H6.32l-.013-.004-.009.002-.008.002H4.521c-.987 0-1.797-.698-1.876-1.58l-.006-.141v-8.73h-.757c-.793 0-1.482-.44-1.761-1.12a1.594 1.594 0 01.283-1.663l.107-.114L10.437.548c.702-.689 1.865-.727 2.62-.115zm-1.836.737l-.096.08-9.93 9.735c-.278.272-.225.558-.164.699.085.209.322.453.714.5l.136.008h1.254c.24 0 .441.172.483.402l.008.088v9.22c0 .376.344.686.785.73l.112.007h1.274v-9.856c0-.239.173-.44.403-.483l.088-.008h11.012c.239 0 .44.173.483.403l.008.088v9.856h1.17c.455 0 .834-.284.89-.647l.007-.093v-9.22c0-.242.172-.442.402-.483l.089-.008h1.388c.477 0 .756-.275.854-.507a.597.597 0 00-.084-.61l-.081-.093L12.5 1.25c-.33-.323-.908-.35-1.28-.08zm5.585 19.005H6.78v2.46h10.027v-2.46zm0-3.442H6.78v2.46h10.027v-2.46zm0-3.46H6.78v2.475h10.027v-2.474z" fill="#5CB615" fill-rule="nonzero"/></svg>
